gama.ui.shared/icons_svg/light/status/status.progress3.svg

<svg height="24.75" viewBox="-942.87 -3566.224 24.75 24.75" width="24.75" xmlns="http://www.w3.org/2000/svg"><path d="m-933.0799-3547.225c1.9872.7754 4.2406.631 6.1413-.4664 3.2593-1.8816 4.4829-5.9746 2.8115-9.3259-.1096-.2197-.0203-.4867.1993-.596.2197-.1097.4866-.0203.5961.1993 1.8808 3.7712.5043 8.3754-3.1624 10.4924-2.127 1.228-4.6476 1.3951-6.8741.5383l1.2632 2.1879c.1228.2124.0499.4844-.1626.6071-.2126.1228-.4844.0499-.6072-.1627l-1.7777-3.079c-.1228-.2127-.0499-.4845.1626-.6073l3.0792-1.7777c.2126-.1228.4844-.05.6072.1626.1227.2124.0499.4844-.1627.6072zm5.1715-13.2497c-1.987-.7753-4.2404-.631-6.1413.4667-3.2696 1.8875-4.4893 5.999-2.797 9.3545.1106.2192.0225.4865-.1966.597-.2192.1105-.4865.0225-.597-.1965-1.9044-3.776-.5323-8.4012 3.1462-10.525 2.127-1.228 4.6477-1.395 6.874-.5383l-1.2632-2.1879c-.1227-.2128-.0499-.4844.1627-.6071.2125-.1227.4844-.0499.6071.1626l1.7778 3.0792c.1227.2125.0499.4845-.1627.6072l-3.0792 1.7777c-.2126.1226-.4844.0499-.6071-.1626-.1228-.2128-.0499-.4844.1626-.6072z" fill="#518738"/></svg>

<?xml version="1.0" encoding="UTF-8" standalone="no"?>
<!DOCTYPE svg PUBLIC "-//W3C//DTD SVG 1.1//EN" "http://www.w3.org/Graphics/SVG/1.1/DTD/svg11.dtd">
<svg version="1.1" xmlns="http://www.w3.org/2000/svg" xmlns:xl="http://www.w3.org/1999/xlink" xmlns:dc="http://purl.org/dc/elements/1.1/" viewBox="-942.87 -3566.2243 24.75 24.75" width="24.75" height="24.75">
  <defs/>
  <g id="SOURCES" stroke-dasharray="none" fill="none" stroke="none" fill-opacity="1" stroke-opacity="1">
    <title>SOURCES</title>
    <g id="SOURCES_Calque_1">
      <title>Calque 1</title>
      <g id="Graphic_6515">
        <path d="M -933.0799 -3547.225 C -931.0927 -3546.4496 -928.8393 -3546.594 -926.9386 -3547.6914 C -923.6793 -3549.573 -922.4557 -3553.666 -924.1271 -3557.0173 C -924.2367 -3557.237 -924.1474 -3557.504 -923.9278 -3557.6133 C -923.7081 -3557.723 -923.4412 -3557.6336 -923.3317 -3557.414 C -921.4509 -3553.6428 -922.8274 -3549.0386 -926.4941 -3546.9216 C -928.6211 -3545.6936 -931.1417 -3545.5265 -933.3682 -3546.3833 L -932.105 -3544.1954 C -931.9822 -3543.983 -932.0551 -3543.711 -932.2676 -3543.5883 C -932.4802 -3543.4655 -932.752 -3543.5384 -932.8748 -3543.751 L -934.6525 -3546.83 C -934.7753 -3547.0427 -934.7024 -3547.3145 -934.4899 -3547.4373 L -931.4107 -3549.215 C -931.1981 -3549.3378 -930.9263 -3549.265 -930.8035 -3549.0524 C -930.6808 -3548.84 -930.7536 -3548.568 -930.9662 -3548.4452 L -933.0799 -3547.225 Z M -927.9084 -3560.4747 C -929.8954 -3561.25 -932.1488 -3561.1057 -934.0497 -3560.008 C -937.3193 -3558.1205 -938.539 -3554.009 -936.8467 -3550.6535 C -936.7361 -3550.4343 -936.8242 -3550.167 -937.0433 -3550.0565 C -937.2625 -3549.946 -937.5298 -3550.034 -937.6403 -3550.253 C -939.5447 -3554.029 -938.1726 -3558.6542 -934.4941 -3560.778 C -932.3671 -3562.006 -929.8464 -3562.173 -927.6201 -3561.3163 L -928.8833 -3563.5042 C -929.006 -3563.717 -928.9332 -3563.9886 -928.7206 -3564.1113 C -928.5081 -3564.234 -928.2362 -3564.1612 -928.1135 -3563.9487 L -926.3357 -3560.8695 C -926.213 -3560.657 -926.2858 -3560.385 -926.4984 -3560.2623 L -929.5776 -3558.4846 C -929.7902 -3558.362 -930.062 -3558.4347 -930.1847 -3558.6472 C -930.3075 -3558.86 -930.2346 -3559.1316 -930.0221 -3559.2544 Z" fill="#518738"/>
      </g>
      <g id="Graphic_6519"/>
    </g>
  </g>
</svg>
